media/icon/icon-instagram.svg

<svg width="52" height="52" xmlns="http://www.w3.org/2000/svg"><g fill-rule="nonzero"><path d="M26 51.3C12.1 51.3.7 40 .7 26S12.1.7 26 .7 51.3 12 51.3 26 39.9 51.3 26 51.3Zm0-47.4C13.8 3.9 3.9 13.8 3.9 26c0 12.2 9.9 22.1 22.1 22.1 12.2 0 22.1-9.9 22.1-22.1 0-12.2-9.9-22.1-22.1-22.1Z"/><g transform="translate(12 12)"><path d="M14 2.8c3.6 0 4.1 0 5.5.1 1.3.1 2 .3 2.5.5.6.2 1.1.5 1.6 1s.8.9 1 1.6c.2.5.4 1.2.5 2.5.1 1.4.1 1.9.1 5.5s0 4.1-.1 5.5c-.1 1.3-.3 2-.5 2.5-.2.6-.5 1.1-1 1.6s-.9.8-1.6 1c-.5.2-1.2.4-2.5.5-1.4.1-1.9.1-5.5.1s-4.1 0-5.5-.1c-1.3-.1-2-.3-2.5-.5-.6-.2-1.1-.5-1.6-1s-.8-.9-1-1.6c-.2-.5-.4-1.2-.5-2.5-.1-1.4-.1-1.9-.1-5.5s0-4.1.1-5.5c.1-1.3.3-2 .5-2.5.2-.6.5-1.1 1-1.6s.9-.8 1.6-1c.5-.2 1.2-.4 2.5-.5 1.4 0 1.9-.1 5.5-.1m0-2.4c-3.7 0-4.2 0-5.6.1-1.4.1-2.4.3-3.3.6-.9.3-1.7.8-2.4 1.6-.8.8-1.2 1.5-1.6 2.4C.8 6 .5 7 .5 8.4.4 9.9.4 10.3.4 14c0 3.7 0 4.2.1 5.6.1 1.4.3 2.4.6 3.3.3.9.8 1.7 1.6 2.4.8.8 1.5 1.2 2.4 1.6.9.3 1.9.6 3.3.6 1.5.1 1.9.1 5.6.1 3.7 0 4.2 0 5.6-.1 1.4-.1 2.4-.3 3.3-.6.9-.3 1.7-.8 2.4-1.6.8-.8 1.2-1.5 1.6-2.4.3-.9.6-1.9.6-3.3.1-1.5.1-1.9.1-5.6 0-3.7 0-4.2-.1-5.6-.1-1.4-.3-2.4-.6-3.3-.3-.9-.8-1.7-1.6-2.4-.8-.8-1.5-1.2-2.4-1.6C22 .8 21 .5 19.6.5 18.2.4 17.7.4 14 .4Z"/><path d="M14 7c-3.9 0-7 3.1-7 7s3.1 7 7 7 7-3.1 7-7-3.1-7-7-7Zm0 11.5c-2.5 0-4.5-2-4.5-4.5s2-4.5 4.5-4.5 4.5 2 4.5 4.5-2 4.5-4.5 4.5Z"/><circle cx="21.3" cy="6.7" r="1.6"/></g></g></svg>

<?xml version="1.0" encoding="UTF-8"?>
<svg width="52px" height="52px" viewBox="0 0 52 52" version="1.1" xmlns="http://www.w3.org/2000/svg" xmlns:xlink="http://www.w3.org/1999/xlink">
    <!-- Generator: Sketch 59.1 (86144) - https://sketch.com -->
    <title>Group</title>
    <desc>Created with Sketch.</desc>
    <g id="Page-1" stroke="none" stroke-width="1" fill="none" fill-rule="evenodd">
        <g id="media01" transform="translate(-243.000000, 0.000000)" fill="#16FFBD" fill-rule="nonzero">
            <g id="Group" transform="translate(243.000000, 0.000000)">
                <path d="M26,51.3 C12.1,51.3 0.7,40 0.7,26 C0.7,12 12.1,0.7 26,0.7 C39.9,0.7 51.3,12 51.3,26 C51.3,40 39.9,51.3 26,51.3 Z M26,3.9 C13.8,3.9 3.9,13.8 3.9,26 C3.9,38.2 13.8,48.1 26,48.1 C38.2,48.1 48.1,38.2 48.1,26 C48.1,13.8 38.2,3.9 26,3.9 Z" id="Shape"></path>
                <g transform="translate(12.000000, 12.000000)">
                    <path d="M14,2.8 C17.6,2.8 18.1,2.8 19.5,2.9 C20.8,3 21.5,3.2 22,3.4 C22.6,3.6 23.1,3.9 23.6,4.4 C24.1,4.9 24.4,5.3 24.6,6 C24.8,6.5 25,7.2 25.1,8.5 C25.2,9.9 25.2,10.4 25.2,14 C25.2,17.6 25.2,18.1 25.1,19.5 C25,20.8 24.8,21.5 24.6,22 C24.4,22.6 24.1,23.1 23.6,23.6 C23.1,24.1 22.7,24.4 22,24.6 C21.5,24.8 20.8,25 19.5,25.1 C18.1,25.2 17.6,25.2 14,25.2 C10.4,25.2 9.9,25.2 8.5,25.1 C7.2,25 6.5,24.8 6,24.6 C5.4,24.4 4.9,24.1 4.4,23.6 C3.9,23.1 3.6,22.7 3.4,22 C3.2,21.5 3,20.8 2.9,19.5 C2.8,18.1 2.8,17.6 2.8,14 C2.8,10.4 2.8,9.9 2.9,8.5 C3,7.2 3.2,6.5 3.4,6 C3.6,5.4 3.9,4.9 4.4,4.4 C4.9,3.9 5.3,3.6 6,3.4 C6.5,3.2 7.2,3 8.5,2.9 C9.9,2.9 10.4,2.8 14,2.8 M14,0.4 C10.3,0.4 9.8,0.4 8.4,0.5 C7,0.6 6,0.8 5.1,1.1 C4.2,1.4 3.4,1.9 2.7,2.7 C1.9,3.5 1.5,4.2 1.1,5.1 C0.8,6 0.5,7 0.5,8.4 C0.4,9.9 0.4,10.3 0.4,14 C0.4,17.7 0.4,18.2 0.5,19.6 C0.6,21 0.8,22 1.1,22.9 C1.4,23.8 1.9,24.6 2.7,25.3 C3.5,26.1 4.2,26.5 5.1,26.9 C6,27.2 7,27.5 8.4,27.5 C9.9,27.6 10.3,27.6 14,27.6 C17.7,27.6 18.2,27.6 19.6,27.5 C21,27.4 22,27.2 22.9,26.9 C23.8,26.6 24.6,26.1 25.3,25.3 C26.1,24.5 26.5,23.8 26.9,22.9 C27.2,22 27.5,21 27.5,19.6 C27.6,18.1 27.6,17.7 27.6,14 C27.6,10.3 27.6,9.8 27.5,8.4 C27.4,7 27.2,6 26.9,5.1 C26.6,4.2 26.1,3.4 25.3,2.7 C24.5,1.9 23.8,1.5 22.9,1.1 C22,0.8 21,0.5 19.6,0.5 C18.2,0.4 17.7,0.4 14,0.4 L14,0.4 Z" id="Shape"></path>
                    <path d="M14,7 C10.1,7 7,10.1 7,14 C7,17.9 10.1,21 14,21 C17.9,21 21,17.9 21,14 C21,10.1 17.9,7 14,7 Z M14,18.5 C11.5,18.5 9.5,16.5 9.5,14 C9.5,11.5 11.5,9.5 14,9.5 C16.5,9.5 18.5,11.5 18.5,14 C18.5,16.5 16.5,18.5 14,18.5 Z" id="Shape"></path>
                    <circle id="Oval" cx="21.3" cy="6.7" r="1.6"></circle>
                </g>
            </g>
        </g>
    </g>
</svg>
